public/content/partners/world-factory.svg

<svg height="200" viewBox="0 0 408 200" width="408" xmlns="http://www.w3.org/2000/svg"><g fill="none"><path d="m23.0450432 134.413234c1.7981089 3.144913 3.8219459 6.138233 6.0617841 8.961511l-7.1015413 8.926631c-1.2557584 1.254679-1.2557584 3.308582 0 4.563261l5.5070235 5.507036c1.2550874 1.255014 3.3074338 1.255014 4.5625212 0l8.9596879-7.127621c2.8244501 2.22059 5.8082177 4.238942 8.9479489 6.021183l-3.1447622 10.969466c-.6808732 1.639367.1073296 3.53698 1.7454502 4.215801l7.1978028 2.980239c1.6371143.678821 3.5365157-.106652 4.2147058-1.746019l5.4979674-9.919708c3.4489751.988046 6.9999135 1.717511 10.6377219 2.17766l1.2775595 11.205243c0 1.774862 1.4523061 3.227083 3.2259304 3.227083h7.7891228c1.7746306 0 3.2276074-1.452221 3.2276074-3.226748v-.006037l.0150932-23.634644-.5601274.081499c-1.9792278.192847-3.9795866.328343-5.9588145.328343-32.4716155 0-58.8911737-26.418347-58.8911737-58.8880616 0-1.9288044.1281249-3.8649871.3142749-5.786413l.0566835-.5121342-23.20972715-.0224709-.18983953.0221356c-1.77563688 0-3.22794282 1.4518855-3.22794282 3.2260768v7.7879963c0 1.774862 1.45230594 3.226077 3.22794282 3.226077l11.03316488 1.25669c.4732572 3.669793 1.2084661 7.255068 2.2197138 10.731008l-9.78981659 5.424866c-1.63912682.679157-2.42565279 2.576435-1.74612119 4.215801l2.98074894 7.194698c.6785254 1.640373 2.57591444 2.425847 4.21504134 1.746355z" fill="#fff"/><g fill="#93c01c" transform="translate(3.125)"><path d="m18.75 66.9502055-5.491872 13.2581278-13.258128-5.4918719 5.49152821-13.2581281z"/><path d="m107.575205 18.75 13.258128 5.491629-5.491872 13.258371-13.258128-5.4916291z"/><path d="m73.9583333 29.1666667h14.5833334v-14.5833334h-14.5833334z"/><path d="m102.083333 167.991285 13.258128-5.491285 5.491872 13.258027-13.258128 5.491973z"/><path d="m42.7083333 24.241629 13.2584717-5.491629 5.4915283 13.2583709-13.2581279 5.4916291z"/><path d="m36.4583333 44.2708332-9.8958333 9.8958335-9.8958333-9.8958335 9.8958333-9.8958332z"/><path d="m156.25 36.9793343-9.896169 9.8956657-9.895498-9.8956657 9.895498-9.896001z"/><path d="m38.5416667 76.5778232-3.661295 8.8388435-8.838705-3.6608218 3.6612949-8.8391782z"/><path d="m162.5 3.66115647-3.660822 8.83884353-8.839178-3.66115648 3.661157-8.83884352z"/><path d="m99.49449 43.75 8.838843 3.6613931-3.661156 8.8386069-8.8388437-3.6610585z"/><path d="m77.0833333 52.0833333h9.375v-9.375h-9.375z"/><path d="m95.8333333 147.411156 8.8388437-3.661156 3.661156 8.839178-8.838843 3.660822z"/><path d="m55.2083333 47.4113931 8.8389415-3.6613931 3.6610585 8.8389415-8.8386068 3.6610585z"/><path d="m51.0416667 62.4998196-7.2916667 7.2918471-7.2916667-7.2918471 7.2916667-7.2914863z"/><path d="m107.291667 192.708514-7.291487 7.291486-7.2918467-7.291486 7.2918467-7.291847z"/></g><g fill="#fff"><path d="m102.992461 122.916667h-10.7551436l-7.3418226-28.8868668h-.1926002l-7.470448 28.8868668h-10.4332409l-11.5908724-45.8333337h11.4625853l6.3107853 27.8594707h.1939542l7.0192426-27.8594707h10.1109994l6.8252884 27.9235777h.064313l6.3764525-27.9235777h11.011379z"/><path d="m136.884217 86.3694737c-4.063658 0-7.810926 2.1619854-7.810926 7.441081v13.2928503c0 4.834798 3.3658 7.568788 8.000826 7.568788 3.936167 0 7.809925-2.353211 7.809925-7.504934v-13.4192202c0-4.7706097-3.746268-7.3785651-7.999825-7.3785651zm.1899 37.5888593c-10.159144 0-19.365784-4.83346-19.365784-16.600517v-13.0374378c0-11.5129821 9.333129-17.2370449 19.048394-17.2370449 10.095398 0 19.493273 5.4057993 19.493273 17.1093383v12.5928044c0 11.830911-9.715265 17.172857-19.175883 17.172857z"/><path d="m182.229555 86.083697h-7.176851v12.1483624h7.176851c4.139079 0 6.726471-2.378653 6.726471-6.1064484 0-4.2430575-2.846063-6.041914-6.726471-6.041914zm7.243813 36.83297-9.118414-16.199506h-5.239026v16.199506h-11.574261v-45.8333337h20.175332c4.592519 0 8.149332.9646386 11.058958 3.0861672 3.556814 2.5709051 5.432775 6.8139626 5.432775 11.3776653 0 5.5925377-2.716557 11.0556682-8.730917 13.4988562l10.605518 17.870645z"/><path d="m207.291667 122.916667v-45.8333337h11.4542v36.4481277h21.879133v9.385206z"/><path d="m263.851297 86.4685387h-6.684871v27.1271193h7.003119c4.137887 0 7.703195-2.63544 7.703195-7.327873l.063919-12.5990905c0-4.5001817-3.565644-7.2001558-8.085362-7.2001558zm1.01799 36.4481283h-19.035954v-45.8333337h18.909124c10.123015 0 18.590876 5.4648203 18.590876 16.1346334v12.9207493c0 11.377665-8.914277 16.777951-18.464046 16.777951z"/><path d="m152.076888 144.134287v14.013311h17.908003v5.528085h-17.908003v20.699317h-6.243555v-45.833333h28.125v5.59262z"/><path d="m192.675643 146.543709h-.128716l-7.12639 20.48372h14.381495zm13.151879 37.831291-4.211203-11.969922h-18.009728l-4.211543 11.969922h-6.478381l16.908829-45.833333h5.960451l16.714053 45.833333z"/><path d="m233.014096 185.416667c-9.416811 0-17.389096-4.934149-17.389096-15.647443v-15.647784c0-9.934505 7.219335-16.62144 17.075312-16.62144 9.038686 0 16.258021 5.193517 16.258021 13.699105v1.623785h-5.901179v-.909155c0-5.648778-4.39363-8.764957-10.482883-8.764957-5.96321 0-10.671947 3.700441-10.671947 10.517743v15.712285c0 6.558275 4.457643 10.453925 10.923041 10.453925 6.08892 0 10.169758-3.115838 10.169758-8.764616v-.974339h5.96321v1.623785c0 9.284036-7.972282 13.699106-15.944237 13.699106"/><path d="m274.127854 144.069413v40.305587h-6.523558v-40.305587h-13.437629v-5.527746h33.333333v5.527746z"/><path d="m310.748382 143.212937c-5.980937 0-10.703079 3.766649-10.703079 10.843661v15.322208c0 6.558275 4.470647 10.389083 10.954574 10.389083 6.044141 0 10.829487-3.571098 10.829487-10.517744v-15.712626c0-6.494115-4.407442-10.324582-11.080982-10.324582zm.12641 42.20373c-9.444612 0-17.124792-5.388045-17.124792-15.647443v-15.388074c0-10.583609 7.743384-16.88115 17.124792-16.88115 9.694782 0 17.250208 5.972306 17.250208 16.166521v15.128705c0 10.58361-8.058415 16.621441-17.250208 16.621441z"/><path d="m352.569137 143.941018h-8.74614v17.163384h8.873673c6.386763 0 10.024836-2.892268 10.024836-8.742017 0-6.171074-4.789235-8.421367-10.152369-8.421367zm11.112229 40.433982-11.7499-17.870232h-8.108469v17.870232h-6.322997v-45.833333h16.411599c4.084439 0 7.534567.900117 10.216136 3.020325 3.127937 2.379026 4.916768 6.235948 4.916768 10.800393 0 6.620795-3.705195 11.89209-10.534972 13.563929l12.323802 18.448686z"/><path d="m392.618383 165.412395v18.962605h-6.13326v-18.962605l-14.610123-26.870728h6.831354l10.94014 20.891909 11.0033-20.891909h6.641873z"/></g></g></svg>

<svg width="408" height="200" viewBox="0 0 408 200" fill="none" xmlns="http://www.w3.org/2000/svg">
<g clip-path="url(#clip0_741_17)">
<path d="M23.045 134.413C24.8432 137.558 26.867 140.551 29.1068 143.374L22.0053 152.301C20.7495 153.556 20.7495 155.61 22.0053 156.864L27.5123 162.371C28.7674 163.626 30.8197 163.626 32.0748 162.371L41.0345 155.244C43.859 157.464 46.8427 159.483 49.9825 161.265L46.8377 172.234C46.1568 173.874 46.945 175.771 48.5832 176.45L55.781 179.43C57.4181 180.109 59.3175 179.324 59.9957 177.684L65.4936 167.765C68.9426 168.753 72.4935 169.482 76.1314 169.942L77.4089 181.148C77.4089 182.922 78.8612 184.375 80.6348 184.375H88.424C90.1986 184.375 91.6516 182.922 91.6516 181.148V181.142L91.6667 157.507L91.1065 157.589C89.1273 157.782 87.127 157.917 85.1477 157.917C52.6761 157.917 26.2566 131.499 26.2566 99.029C26.2566 97.1002 26.3847 95.164 26.5708 93.2426L26.6275 92.7305L3.41778 92.708L3.22794 92.7301C1.45231 92.7301 0 94.182 0 95.9562V103.744C0 105.519 1.45231 106.97 3.22794 106.97L14.2611 108.227C14.7344 111.897 15.4696 115.482 16.4808 118.958L6.691 124.383C5.05188 125.062 4.26535 126.959 4.94488 128.599L7.92563 135.793C8.60416 137.434 10.5015 138.219 12.1407 137.54L23.045 134.413Z" fill="white"/>
<path d="M21.875 66.9499L16.3831 80.208L3.125 74.7161L8.61653 61.458L21.875 66.9499Z" fill="#E8E8E8"/>
<path d="M110.7 18.75L123.958 24.2416L118.466 37.5L105.208 32.0084L110.7 18.75Z" fill="#E8E8E8"/>
<path d="M77.083 29.1663H91.6663V14.583H77.083V29.1663Z" fill="#E8E8E8"/>
<path d="M105.208 167.991L118.466 162.5L123.958 175.758L110.7 181.25L105.208 167.991Z" fill="#E8E8E8"/>
<path d="M45.833 24.2416L59.0915 18.75L64.583 32.0084L51.3249 37.5L45.833 24.2416Z" fill="#E8E8E8"/>
<path d="M39.5837 44.2708L29.6878 54.1667L19.792 44.2708L29.6878 34.375L39.5837 44.2708Z" fill="#E8E8E8"/>
<path d="M159.375 36.979L149.479 46.8747L139.583 36.979L149.479 27.083L159.375 36.979Z" fill="#E8E8E8"/>
<path d="M41.667 76.5781L38.0057 85.417L29.167 81.7562L32.8283 72.917L41.667 76.5781Z" fill="#E8E8E8"/>
<path d="M165.625 3.66116L161.964 12.5L153.125 8.83884L156.786 0L165.625 3.66116Z" fill="#E8E8E8"/>
<path d="M102.619 43.75L111.458 47.4114L107.797 56.25L98.958 52.5889L102.619 43.75Z" fill="#E8E8E8"/>
<path d="M80.208 52.083H89.583V42.708H80.208V52.083Z" fill="#E8E8E8"/>
<path d="M98.958 147.411L107.797 143.75L111.458 152.589L102.619 156.25L98.958 147.411Z" fill="#E8E8E8"/>
<path d="M58.333 47.4114L67.1719 43.75L70.833 52.5889L61.9944 56.25L58.333 47.4114Z" fill="#E8E8E8"/>
<path d="M54.1663 62.4995L46.8747 69.7913L39.583 62.4995L46.8747 55.208L54.1663 62.4995Z" fill="#E8E8E8"/>
<path d="M110.416 192.709L103.125 200L95.833 192.709L103.125 185.417L110.416 192.709Z" fill="#E8E8E8"/>
<path d="M102.992 122.916H92.237L84.8952 94.0295H84.7026L77.2321 122.916H66.7989L55.208 77.083H66.6706L72.9814 104.942H73.1753L80.1946 77.083H90.3056L97.1309 105.007H97.1952L103.572 77.083H114.583L102.992 122.916Z" fill="white"/>
<path d="M136.884 86.3691C132.82 86.3691 129.073 88.5311 129.073 93.8102V107.103C129.073 111.938 132.439 114.672 137.074 114.672C141.01 114.672 144.884 112.319 144.884 107.167V93.7477C144.884 88.9771 141.137 86.3691 136.884 86.3691ZM137.074 123.958C126.915 123.958 117.708 119.125 117.708 107.357V94.3201C117.708 82.8071 127.041 77.083 136.756 77.083C146.852 77.083 156.25 82.4888 156.25 94.1923V106.785C156.25 118.616 146.534 123.958 137.074 123.958Z" fill="white"/>
<path d="M182.229 86.0834H175.052V98.2317H182.229C186.368 98.2317 188.955 95.8531 188.955 92.1253C188.955 87.8822 186.109 86.0834 182.229 86.0834ZM189.473 122.916L180.354 106.717H175.115V122.916H163.541V77.083H183.716C188.309 77.083 191.866 78.0476 194.775 80.1692C198.332 82.7401 200.208 86.9831 200.208 91.5468C200.208 97.1394 197.492 102.603 191.477 105.046L202.083 122.916H189.473Z" fill="white"/>
<path d="M207.291 122.916V77.083H218.745V113.531H240.624V122.916H207.291Z" fill="white"/>
<path d="M263.851 86.4682H257.166V113.595H264.169C268.307 113.595 271.872 110.96 271.872 106.267L271.936 93.6684C271.936 89.1682 268.371 86.4682 263.851 86.4682ZM264.869 122.916H245.833V77.083H264.742C274.865 77.083 283.333 82.5478 283.333 93.2176V106.138C283.333 117.516 274.419 122.916 264.869 122.916Z" fill="white"/>
<path d="M152.077 144.134V158.147H169.985V163.675H152.077V184.374H145.833V138.541H173.958V144.134H152.077Z" fill="white"/>
<path d="M192.675 146.543H192.546L185.42 167.027H199.801L192.675 146.543ZM205.827 184.374L201.616 172.404H183.606L179.394 184.374H172.916L189.825 138.541H195.785L212.499 184.374H205.827Z" fill="white"/>
<path d="M233.014 185.417C223.597 185.417 215.625 180.483 215.625 169.769V154.121C215.625 144.187 222.844 137.5 232.7 137.5C241.739 137.5 248.958 142.694 248.958 151.199V152.823H243.057V151.914C243.057 146.265 238.664 143.149 232.574 143.149C226.611 143.149 221.902 146.849 221.902 153.667V169.379C221.902 175.937 226.36 179.833 232.825 179.833C238.914 179.833 242.995 176.717 242.995 171.068V170.094H248.958V171.718C248.958 181.002 240.986 185.417 233.014 185.417Z" fill="white"/>
<path d="M274.127 144.069V184.374H267.604V144.069H254.166V138.541H287.499V144.069H274.127Z" fill="white"/>
<path d="M310.748 143.213C304.767 143.213 300.045 146.98 300.045 154.057V169.379C300.045 175.937 304.516 179.768 311 179.768C317.044 179.768 321.829 176.197 321.829 169.25V153.538C321.829 147.043 317.422 143.213 310.748 143.213ZM310.875 185.417C301.43 185.417 293.75 180.029 293.75 169.769V154.381C293.75 143.798 301.493 137.5 310.875 137.5C320.57 137.5 328.125 143.472 328.125 153.667V168.795C328.125 179.379 320.067 185.417 310.875 185.417Z" fill="white"/>
<path d="M352.569 143.94H343.823V161.104H352.697C359.083 161.104 362.721 158.211 362.721 152.362C362.721 146.191 357.932 143.94 352.569 143.94ZM363.681 184.374L351.931 166.504H343.823V184.374H337.5V138.541H353.912C357.996 138.541 361.446 139.441 364.128 141.561C367.256 143.94 369.044 147.797 369.044 152.362C369.044 158.983 365.339 164.254 358.51 165.926L370.833 184.374H363.681Z" fill="white"/>
<path d="M392.618 165.412V184.374H386.485V165.412L371.875 138.541H378.706L389.646 159.433L400.65 138.541H407.292L392.618 165.412Z" fill="white"/>
</g>
<defs>
<clipPath id="clip0_741_17">
<rect width="408" height="200" fill="white"/>
</clipPath>
</defs>
</svg>
